app/images/icons/user-grey.svg

<svg width="20" height="20" xmlns="http://www.w3.org/2000/svg">

 <g>
  <title>Layer 1</title>
  <g>
   <title>Blog_section</title>
   <g id="svg_9">
    <g id="svg_10">
     <g id="svg_11">
      <path fill="#8d8d8d" d="m20,20l-1.56,0c0,-4.65 -3.79,-8.44 -8.44,-8.44c-4.65,0 -8.44,3.79 -8.44,8.44l-1.56,0c0,-2.67 1.04,-5.18 2.93,-7.07c1.09,-1.09 2.38,-1.9 3.8,-2.39c-1.52,-1.04 -2.51,-2.79 -2.51,-4.76c0,-3.19 2.59,-5.78 5.78,-5.78c3.19,0 5.78,2.59 5.78,5.78c0,1.97 -0.99,3.72 -2.51,4.76c1.42,0.49 2.71,1.3 3.8,2.39c1.89,1.89 2.93,4.4 2.93,7.07zm-14.22,-14.22c0,-2.33 1.89,-4.22 4.22,-4.22c2.33,0 4.22,1.89 4.22,4.22c0,2.33 -1.89,4.22 -4.22,4.22c-2.33,0 -4.22,-1.89 -4.22,-4.22z" class="shp0" id="svg_12"/>
     </g>
    </g>
   </g>
  </g>
  <ellipse stroke="#ffffff" ry="4.13043" rx="4.45652" id="svg_18" cy="5.86957" cx="9.8913" fill="#fff"/>
 </g>
</svg>

<svg version="1.2" baseProfile="tiny-ps" xmlns="http://www.w3.org/2000/svg" viewBox="0 0 20 20" width="20" height="20">
	<title>Blog_section</title>
	<style>
		tspan { white-space:pre }
		.shp0 { fill: #8d8d8d } 
	</style>
	<g id="Blog_section">
		<g id="Blog_3">
			<g id="User">
				<path id="Shape 15" class="shp0" d="M20 20L18.44 20C18.44 15.35 14.65 11.56 10 11.56C5.35 11.56 1.56 15.35 1.56 20L0 20C0 17.33 1.04 14.82 2.93 12.93C4.02 11.84 5.31 11.03 6.73 10.54C5.21 9.5 4.22 7.75 4.22 5.78C4.22 2.59 6.81 0 10 0C13.19 0 15.78 2.59 15.78 5.78C15.78 7.75 14.79 9.5 13.27 10.54C14.69 11.03 15.98 11.84 17.07 12.93C18.96 14.82 20 17.33 20 20ZM5.78 5.78C5.78 3.45 7.67 1.56 10 1.56C12.33 1.56 14.22 3.45 14.22 5.78C14.22 8.11 12.33 10 10 10C7.67 10 5.78 8.11 5.78 5.78Z" />
			</g>
		</g>
	</g>
</svg>
